X:1
T:The Last Judgement
T:Praise his awful name
T:Louis Spohr
T:Engl. transl. by Edward Taylor
T:Praise his awful name
T:From the oratorio: The Last Judgement
T:CPDL   —   Creative Commons Attribution Non Commercial 3.0
T:CPDL   —   Creative Commons Attribution Non Commercial 3.0
T:CPDL   —   Creative Commons Attribution Non Commercial 3.0
T:CPDL   —   Creative Commons Attribution Non Commercial 3.0
T:CPDL   —   Creative Commons Attribution Non Commercial 3.0
T:CPDL   —   Creative Commons Attribution Non Commercial 3.0
T:CPDL   —   Creative Commons Attribution Non Commercial 3.0
T:CPDL   —   Creative Commons Attribution Non Commercial 3.0
T:CPDL   —   Creative Commons Attribution Non Commercial 3.0
T:CPDL   —   Creative Commons Attribution Non Commercial 3.0
C:Louis Spohr
Z:CPDL   —   Creative Commons Attribution Non Commercial 3.0
%%score [ ( 1 2 ) 3 4 ] { ( 5 7 9 ) | ( 6 8 ) }
L:1/8
Q:1/4=84
M:3/4
K:F
V:1 treble nm="Soprano\nAlto"
V:2 treble 
V:3 treble-8 nm="Tenor"
V:4 bass nm="Bass"
V:5 treble nm="Piano"
V:7 treble 
V:9 treble 
V:6 bass 
V:8 bass 
V:1
"^Allegro moderato"!f! A7/2 A/ c>c | f4 z2 | F7/2 F/ A>A | d4 d2 | c2 z2 c>d | B2 z B B>c | %6
w: Praise his aw- ful|name,|Praise his aw- ful|name, who|was, and _|is, and is to|
 A3 z z2 | c3 c de | f4 e2 | (e2"^dim." d2) c2 |!p! c4 =B2 | c2 z2 z2 | z6 | z6 | z6 | z6 | z6 | %17
w: come,|praise to him who|giv- eth|im- * mor-|ta- li-|ty.||||||
 z6 |!f! z6 |!f! e3 e fg | gf ed cB | A6- | AB A2 Gc | c2 z2 z2 | d3 d ef | f2 ed cB | AB A2 G2 | %27
w: ||He a- lone is|migh- * ty, a- lone, and|he|_ a- lone is _|great,|he a- lone is|migh- ty, and he, and|he a- lone is|
 d4 z2 | e4 z2 | f4 z2 | d2 c2 z E | F2 z2 z2 | c3 c de | f4 e>f | d4 c>d | c3 B c>B | A2 z2 z2 | %37
w: great.|Praise,|praise,|glo- ry to|God.|Praise his aw- ful|name, who _|was, and _|is, and is to|come.|
 c3 c de | f4 e2 | (e3"^dim." d) cB |!p! A4 AG | F2 z4 | z6 | z6 | z6 | z6 |!p! f3 e dc | %47
w: Praise to him who|giv- eth|im- * mor- *|tal- i- *|ty.|||||Wor- ship and a-|
 c2 BA dc | (c2 B2) B2 | (B2 A2) A2 | d2 G2 c2- | c>B (A2 G2) | B4 z2 | z6 | z2!f! d2 z2 | %55
w: dore _ _ him, _|wor- * ship|and _ a-|dore him, and|_ a- dore _|him.||Praise,|
 c2 c2 z B | A4 z2 | f4 z2 | d6 | c4 E2 | F2!p! z2!p! c>c | =B2 z2 _B>B | A2 z2!<(! cf!<)! | %63
w: glo- ry to|God.|Praise,|glo-|ry to|him, he that|was, he that|is, and _|
!f! (f2 ed) e2 | f4 z2 | c6 | A4 z2 | G6 | F4 z2 | z6 | z6 |] %71
w: is _ _ to|come,|praise|him!|praise|him!|||
V:2
 F7/2 F/ G>G | F4 x2 | D7/2 D/ E>E | D4 D2 | F2 x2 ^F2 | G2 x G G>E | F3 x x2 | G3 G GG | F4 G2 | %9
w: |||||||||
 A4 A2 | G2 F4 | E2 x2 x2 | x6 | x6 | x6 | x6 | x6 | x6 | G3 G AB | B2 AG FE | F4 G2 | F6- | %22
w: |||||||||He a- lone is|migh- ty, and he a-|lone, and|he|
 FG F2 E2 | _E2 z A Bc | c2 BA GF | (G3 F) E2 | FG F2 E2 | F4 x2 | G4 x2 | F4 x2 | F2 E2 x C | %31
w: _ _ _ _|* a- lone is|migh- ty, a- lone is|migh- * ty,||||||
 C2 x2 x2 | G3 G GG | F4 A2 | F4 F2 | F3 F G>G | A2 x2 x2 | G3 G GG | F4 G2 | (G3 F) ^FG | F4 E2 | %41
w: ||||||||||
 F2 x4 | x6 | x6 | x6 | x6 | x6 | F4 F2 | F4 G2 | G4 ^F2 | G2 E2 (=F2 | ^F>)G (=F2 E2) | F4 x2 | %53
w: ||||||Wor- ship|and a-|dore. *||||
 x6 | x2 F2 x2 | F2 E2 x E | F4 x2 | F4 x2 | F6 | E4 C2 | C2 F4 | F6- | F6 | G4 G2 | F4 x2 | E6 | %66
w: |||||||* to|him,|_|praise to|him!||
 F4 x2 | E6 | F4 x2 | x6 | x6 |] %71
w: |||||
V:3
!f! c7/2 c/ c>c | A4 z2 | A7/2 A/ A>A | F4 F2 | c2 z2 A2 | B2 z d e>c | c3 z z2 | c3 c cc | %8
w: Praise his aw- ful|name,|Praise his aw- ful|name, who|was, and|is, and is to|come,|praise to him who|
 (A2 =B2) ^c2 | (^c2"^dim." d2) _e2 |!p! =e2 d4 | c2 z2 c>_d | _d4 cB | _A>"^dim."G F2 _E2 | %14
w: giv- * eth|im- * mor-|ta- li-|ty. All _|glo- ry and|ma- jes- ty sur-|
!pp! _D4 D2 | C4 z2 | z6 |!f! B3 B cd | d2 c2 z F | G2 A4 | A2 B2 G2 | A6- | Ad c2 B2 | A2 z F GA | %24
w: roud his|throne.||He a- lone is|migh- ty, a-|lone is|migh- ty, and|he|_ a- lone is|great, a- lone is|
 A2 GF ED | (^C3 D) G2 | Fd c2 c2 | G4 z2 | c4 z2 | c4 z2 | G2 G2 z B | A2 z2 z2 | c3 c cc | %33
w: migh- ty, a- lone is|migh- * ty,|he a- lone is|great.|Praise,|praise,|glo- ry to|God.|Praise his aw- ful|
 A4 c2 | B4 c2 | d3 d e>e | f2 z2 z2 | c3 c cc | A4 ^c2 | (^c3"^dim." d) _ed |!p! c4 B2 | %41
w: name, who|was, and|is, and is to|come,|Praise to him who|giv- eth|im- * mor- *|tal- i-|
 A2 z2 A>B | B4 AG |"^dim." F>E D2 C2 |!pp! B,4 B,2 | A,4 z2 | z6 |!p! d3 c BA | d4 ^cd | e4 _e2 | %50
w: ty. All _|glo- ry and|ma- jes- ty sur-|roud his|throne.||Wor- ship and a-|dore him, _|and a-|
 (d2 _d2) c2 | =d>d c4 | B4 z2 | z6 | z2!f! G2 z2 | A2 G2 z G | F4 z2 | c4 z2 | G6 | G4 B2 | %60
w: dore _ him,|and a- dore-|him!||Praise,|glo- ry to|God.|Praise,|glo-|ry to|
 A2 z2!p! _e>e | d2 z2 _d>d | c2 z2 A2 |!f! B4 B2 | A4 z2 | G6 | A4 z2 | B6 | A4 z2 | z6 | z6 |] %71
w: him, he that|was, he that|is, and|is to|come,|praise|him!|praise|him!|||
V:4
!f! F,7/2 F,/ E,>E, | D,4 z2 | D,7/2 D,/ C,>C, | B,,4 B,,2 | A,,2 z2 D,2 | G,2 z G, C,>C, | %6
w: ||||||
 F,3 z z2 | E,3 E, E,E, | D,4 E,2 | F,4 ^F,2 |!p! G,4 G,2 | C,2 z2 C>_D | _D4 CB, | %13
w: |||||||
 _A,>"^dim."G, F,2 _E,2 |!pp! _D,4 D,2 | C,4 z2 |!f! F,3 F, G,A, | A,2 G,2 z F, | E,4- E,D, | %19
w: |||He a- lone is|migh- ty, a.-|lone _ is|
 ^C,6 | D,4 E,2 | F,3 ^C, D,2- | D,B,, =C,2 C,2 | F,4 F,2 | B,,6- | B,,4 =C,2 | D,B,, C,2 C,2 | %27
w: migh-|ty, and|he a- lone,|_ a- lone is|great, a-|lone|_ and|he a- lone is|
 =B,,4 z2 | _B,,4 z2 | A,,4 z2 | B,,2 C,2 z C, | F,2 z2 z2 | E,3 E, E,E, | D,4 A,2 | B,4 A,2 | %35
w: great.||||||||
 G,3 G, C,>C, | F,2 z2 z2 | E,3 E, E,E, | D,4 A,2 | B,4 B,,2 |!p! C,6 | F,2 z2 A,>B, | B,4 A,G, | %43
w: ||||||||
"^dim." F,>E, D,2 C,2 |!pp! B,,4 B,,2 | A,,4 z2 | z6 | z6 |!p! G,3 F, E,D, | ^C,4 =C,2 | %50
w: |||||Wor- ship and a-|dore, a-|
 (=B,,2 _B,,2) A,,2 | B,,>B,, C,4 | D,4 z2 | z6 | z2!f! =B,,2 z2 | C,2 C,2 z C, | D,4 z2 | %57
w: dore _ him,|and a- dore|him!|||||
 A,,4 z2 | B,,6 | C,4 C,2 | F,2!p! F,4 | F,6- | F,6 |!f! C,6 | F,4 z2 | C,6 | F,4 z2 | C,6 | %68
w: |||* to|him,|_|praise|him!||||
 F,4 z2 | z6 | z6 |] %71
w: |||
V:5
 [A,F]7/2 [FA]/ [Gc]>[Gc] | [Ff]4 z2 | [DF]7/2 [DF]/ [EA]>[EA] | [Dd]4 z2 | z2 [cfc']2 [c^fc']2 | %5
 z2 [Bdgb]2 [Beb]2 | [Acfa]3 AGF | [Gc]3 .[Gc].[Gd].[Ge] | [Ff]4 [Ge]2 | e2 d2 c2 | (c4 =B2) | %11
 [Ec]2 z egf | (f2 e4) | f>g _a>f c'>c' |!8va(! f'4 g'f' | f'2 =e'!8va)! ([Bd][Ac][GB]) | %16
 A2 z2 z2 | z6 | x6 | e3 efg | gfedcB | [FA]6- | [FA][GB] [FA]2 Gc | c2 z ABc | d3 def | fGedcB | %26
 [FA][GB] [FA]2 [EG]2 | [FGd]2 [FGd]4 | [Gce]2 [Gce]4 | [Fcf]2 [Fcf]4 | [Fd]2 [Ec]2 z [G,B,CE] | %31
 [A,CF]3 [CA][EG]F | [cc']3 [cc'][dd'][ee'] | [ff']4 [ee']>[ff'] | [dd']4 [cc']>[dd'] | %35
 [cc']3 [Bb][cc']>[Bb] | [Aa]2 z [CA][EG]F | [cc']3 [cc'][dd'][ee'] | [ff']4 [ee']2 | %39
 [ee']3 [dd'][cc'][Bb] | [Aa]4- [Aa][Gg] | [Ff][ca][Bg][Af] ed | d2 ^c4 | d>e f>d a>a | d'4 e'd' | %45
 d'2 ^c'2 =c'2 | (f3 edc) | c2 BAdc | (c2 B2) [GB]2 | (B2 A2) [^FA]2 | [Gd]2 [EG]2 [=Fc]2 | %51
 [^Fc]>[GB] [C=FA]2 [CEG]2 | [B,FB]4 [Ff]>[Ff] | f2 edcB | A2 [Fd]2 z2 | [Fc]2 [Ec]2 z [EB] | %56
 [FA] [FA]2 [FA]2 [FA] | z [Fcf]2 [Fcf]2 [Fcf] | z [FGd]2 [FGd]2 [FGd] | z [EGc]2 [EGc]2 E | %60
 F2 z2 c2 | =B2 z2 _B2 | A4 cf | f2 ed e2 | f4 z2 | [Ec]6 | [FA]4 z2 | [EG]6 | F4 [A,CFA]>[A,CFA] | %69
 [A,CFA]6- | [A,CFA]4 z2 |] %71
V:6
!f! F,7/2 [F,C]/ [E,C]>[E,C] | [D,A,]4 z2 | [D,A,]7/2 [D,A,]/ [C,A,]>[C,A,] | [B,,F,]4 z2 | %4
 z2 [A,CF]2 [D,A,D]2 | z2 [G,B,D]2 [C,G,C]2 | [F,C]3 F,[F,B,][F,A,] | [E,C]3 [E,C][E,C][E,C] | %8
 A,2 =B,2 ^C2 | ^C2"^dimin." D2 _E2 |!p! =E2 D4 | C2 z[K:treble] z B2 | B4 c_d | %13
 c>"^dimin."B _A>F c>c | cA B2 =B2 | c3[K:bass] ([C,E,][D,F,][E,G,]) | A,2 z2 z2 | B,3 B,CD | %18
 DG, C3 F, | G,2 A,4 | A,2 B,2 G,2 | A,6- | A,[I:staff -1]D[I:staff +1] x2 B,2 | A,2 z F,G,A, | %24
 A,D,G,F,E,D, | ^C,3 D, G,2 | F,[I:staff -1]D[I:staff +1] x4 |!f! [=B,,D,G,]2 [B,,D,G,]4 | %28
 [_B,,C,G,]2 [B,,C,G,]4 | [A,,C,F,]2 [A,,C,F,]4 | [B,,G,]2 [C,G,]2 z [C,B,] | %31
 x3[I:staff -1] C[I:staff +1]B,A, | !/![E,G,C]6 | !/![D,A,D]4 [A,C][A,C] | !/![B,F]4 [A,F][A,F] | %35
 !/![G,DF]4 [CEG][CEG] | [F,F]2 x[I:staff -1] C[I:staff +1]B,A, | !/![E,G,C]6 | %38
 !/![D,A,D]4[K:treble] [A,^CG][A,CG] | [_B,^CG][B,CG]"^dimin." [B,CG][B,DF] [B,_E^F][B,DG] | %40
!pp! [CF][K:bass]CA,F, [C,E,B,]2 | A,CEF^CD | E6 | D>^C D2 A>A | A^F G2 ^G2 | [EA]4 G2 | %46
 [A,F]2 z2 z2 | (D3 CB,A,) | (G,3 F,E,D,) | ^C,4 =C,2 | =B,,2 _B,,2 A,,2 | _B,,2 C,2 C,2 | %52
 D,4!f! [_D,B,]>[D,B,] |"^dimin." B,3 =B,C[I:staff -1]E |!p![I:staff +1] D,2!f! [=B,,G,]2 z2 | %55
!p! [C,A,]2 [C,G,]2 z [C,G,] |!<(! [D,F,]2 D2 D,2!<)! |!f! A,,2 A,2 A,,2 | B,,2 B,2 B,,2 | %59
!p! C,2 C2 z [G,B,] | A,2 z2 _E2 | D4 _D2 | C4!<(! A,2!<)! |!f! [C,B,]4 [C,B,]2 | [F,A,]4 z2 | %65
 [C,G,]6 | [F,A,]4 z2 | [C,B,]6 | [F,A,]4!ff! [F,,C,F,]>[F,,C,F,] | [F,,C,F,]6- | [F,,C,F,]4 z2 |] %71
V:7
 x6 | x6 | x6 | x6 | x6 | x6 | x3[I:staff +1] C[I:staff -1]EF | x6 | x6 | A4 A2 | (G2 F4) | x6 | %12
 x6 | x2 _a2 g2 |!8va(! c'a b2 =b2 | c'3!8va)! x3 | x6 | x6 | G3 GAB | BEAGFE | F4 G2 | x6 | %22
 x2 C2 E2 | _E2 E4 | c2 BAGF | G3 F E2 | x2 C2 C2 | x6 | x6 | x6 | x6 | x6 | x6 | x6 | x6 | x6 | %36
 x6 | x6 | x6 | x6 | x6 | x4 GG | (G4 A)B | A>A A2 e2 | a^f g2 ^g2 | a4 x2 | c2 x4 | F6 | %48
 [DF]4 ^CD | [EG]4 _E2 | D2 _D2 C2 | D2 z4 | x6 | G3 [F_A] [EG] x | F2 x4 | x6 | x6 | x6 | x6 | %59
 x6 | x2 F4- | F2 F4- | F2 F2 F2 | G4 G2 | F4 x2 | x6 | x6 | x6 | x6 | x6 | x6 |] %71
V:8
 x6 | x6 | x6 | x6 | x6 | x6 | x6 | x6 | D,4 E,2 | F,4 ^F,2 | G,6 | C,2 x[K:treble] CEF | G6 | %13
 F>E F2 G2 | F4 F2 | G3[K:bass] x3 | F,3 (F,G,A,) | A,D, G,3 F, | E,4- E,D, | ^C,6 | D,4 E,2 | %21
 F,E, F,^C, D,C, | D,B,, =C,2 C,2 | F,6 | B,,6 | B,,4 =C,2 | D,B,, C,2 C,2 | x6 | x6 | x6 | x6 | %31
 !/!F,6 | x6 | x6 | x6 | x6 | F,F, !/!F,4 | x6 | x4[K:treble] x2 | x6 | x[K:bass] x5 | F,2 z2 z2 | %42
 x6 | x4 E2 | D4 D2 | z2 A,2 _B,2 | x6 | x6 | x6 | x6 | x6 | x6 | x6 | C,4- C,^C, | x6 | x6 | x6 | %57
 x6 | x6 | x4 C,2 | F,2 F,4- | F,2 F,4- | F,2 F,2 F,2 | x6 | x6 | x6 | x6 | x6 | x6 | x6 | x6 |] %71
V:9
 x6 | x6 | x6 | x6 | x6 | x6 | x6 | x6 | x6 | x6 | x6 | x6 | x6 | x6 |!8va(! f4 gf | %15
 f2 =e!8va)! x3 | x6 | x6 | x6 | x6 | x6 | x6 | x6 | x6 | x6 | x6 | x6 | x6 | x6 | x6 | x6 | x6 | %32
 x6 | x6 | x6 | x6 | x6 | x6 | x6 | x6 | x6 | x6 | x6 | x6 | d4 ed | d2 ^c2 [=ce]2 | x6 | x6 | x6 | %49
 x6 | x6 | x6 | x6 | x6 | x6 | x6 | x6 | x6 | x6 | x6 | x6 | x6 | x6 | x6 | x6 | x6 | x6 | x6 | %68
 x6 | x6 | x6 |] %71

